tests/fixtures/synthetic_multi_description.xmp
<?xml version="1.0" encoding="UTF-8"?>
<x:xmpmeta xmlns:x="adobe:ns:meta/" x:xmptk="lrt-cinema synthetic fixture">
 <rdf:RDF xmlns:rdf="http://www.w3.org/1999/02/22-rdf-syntax-ns#">
  <rdf:Description rdf:about=""
    xmlns:crs="http://ns.adobe.com/camera-raw-settings/1.0/"
    crs:Exposure2012="+1.25"
    crs:Temperature="5800"/>
  <rdf:Description rdf:about=""
    xmlns:lrt="http://lrtimelapse.com/ns/1.0/"
    lrt:keyframe="1"
    lrt:deflickerExposure="0.07"/>
 </rdf:RDF>
</x:xmpmeta>
