tests/fixtures/synthetic_keyframe_a.xmp
<?xml version="1.0" encoding="UTF-8"?>
<x:xmpmeta xmlns:x="adobe:ns:meta/" x:xmptk="lrt-cinema synthetic fixture">
 <rdf:RDF xmlns:rdf="http://www.w3.org/1999/02/22-rdf-syntax-ns#">
  <rdf:Description rdf:about=""
    xmlns:crs="http://ns.adobe.com/camera-raw-settings/1.0/"
    xmlns:lrt="http://lrtimelapse.com/ns/1.0/"
    crs:Exposure2012="+0.50"
    crs:Contrast2012="+15"
    crs:Highlights2012="-30"
    crs:Shadows2012="+25"
    crs:Whites2012="+10"
    crs:Blacks2012="-5"
    crs:Temperature="5500"
    crs:Tint="+8"
    crs:Saturation="+5"
    crs:Vibrance="+10"
    crs:Sharpness="40"
    crs:SharpenRadius="1.5"
    lrt:keyframe="1"/>
 </rdf:RDF>
</x:xmpmeta>
