tests/fixtures/synthetic_real_lrt_mask_offsets.xmp
<?xpacket begin="﻿" id="W5M0MpCehiHzreSzNTczkc9d"?>
<x:xmpmeta xmlns:x="adobe:ns:meta/" x:xmptk="lrt-cinema test fixture">
 <rdf:RDF xmlns:rdf="http://www.w3.org/1999/02/22-rdf-syntax-ns#">
  <rdf:Description rdf:about=""
    xmlns:crs="http://ns.adobe.com/camera-raw-settings/1.0/"
    xmlns:xmp="http://ns.adobe.com/xap/1.0/"
    crs:Exposure2012="-0.500000"
    xmp:Rating="4">
   <crs:MaskGroupBasedCorrections>
    <rdf:Seq>
     <rdf:li>
      <rdf:Description
        crs:CorrectionName="#LRT internal use (HG)"
        crs:LocalExposure2012="0.250000"
        crs:What="Correction" />
     </rdf:li>
     <rdf:li>
      <rdf:Description
        crs:CorrectionName="#LRT internal use (Deflicker)"
        crs:LocalExposure2012="-0.075000"
        crs:What="Correction" />
     </rdf:li>
     <rdf:li>
      <rdf:Description
        crs:CorrectionName="#LRT internal use (Global)"
        crs:LocalExposure2012="0.000000"
        crs:What="Correction" />
     </rdf:li>
     <rdf:li>
      <rdf:Description
        crs:CorrectionName="LRT Mask 1"
        crs:LocalExposure2012="0.500000"
        crs:What="Correction" />
     </rdf:li>
    </rdf:Seq>
   </crs:MaskGroupBasedCorrections>
  </rdf:Description>
 </rdf:RDF>
</x:xmpmeta>
<?xpacket end="w"?>
